X:1
T:Reel semeur (R-140)
I: Reel semeur	R-140	D	reel
R:reel
H:Traditional reel from Quebec
D:From workshop by Richard Forest
Z:Translated to abc by Debby Knight, edited by Mary Lou Knack
M:C|
K:D
A| "D"ABAG F2A2| f4 d4| ABAG  F2A2 | f4 d4  |
   "Em"e3f "A7"g2e2 | "D"dcde "Bm"fafd| "Em"cBcd "A7"efec |1 "D"dBAF D3 :|[2 "D"dBAF "D#o"D2df ||
|: "Em"a2(3gbg "A7"e2ce| "D"g2f2 "Bm"d3e| "Em"(3faf e2 "A7"B2c2 | "D"dcde "D#o"fedf|
"Em"a2(3gbg "A7"eece| "D"g2f2 "Bm"d3c| "E7"B2g2 "A7"e2c2  |1 "D"dBAF "D#o"D2df :|[2 "D"dBAF D3|]

